svg/结束.svg

<svg width="24" height="24" viewBox="0 0 24 24" fill="none" xmlns="http://www.w3.org/2000/svg"><circle cx="12" cy="12" r="12" fill="#FEF2F2"/><path d="M13.8462 9.23071H10.1539C9.64411 9.23071 9.23083 9.64399 9.23083 10.1538V13.8461C9.23083 14.3559 9.64411 14.7692 10.1539 14.7692H13.8462C14.356 14.7692 14.7693 14.3559 14.7693 13.8461V10.1538C14.7693 9.64399 14.356 9.23071 13.8462 9.23071Z" fill="#FB2C36"/><defs><clipPath id="clip0_326_19041"><rect width="24" height="24" fill="white"/></clipPath></defs></svg>

<svg fill="none" viewBox="0 0 24 24"><circle cx="12" cy="12" r="12" fill="#FEF2F2"/><path fill="#FB2C36" d="M13.846 9.23h-3.692a.923.923 0 0 0-.923.924v3.692c0 .51.413.923.923.923h3.692c.51 0 .923-.413.923-.923v-3.692a.923.923 0 0 0-.923-.923"/></svg>
